!!key: tele-40-7-Fan-Spi-3-Flute
!!!COM: Telemann, Georg Philipp
!!!CDT: 1681/03/14-1767/06/25
!!!CBL: Magdeburg
!!!CDL: Hamburg
!!!CNT: German
!!!TWV: 40:7
!!!TWV-genre: 40
!!!TWV-work: 7
!!!OPR: 12 Fantasias for transverse flute without bass
!!!OTL: Fantasia 6
!!!OMD: Spirituoso
!!!OMV: 3
!!!ODT: ca. 1732–1733
!!!AST: Late Baroque
!!!AGN: Fantasia
!!!AMT: Simple triple
!!!AIN: Transverse flute
**kern
*ICww
*Iflt
*clefG2
*k[b-]
*d:
*M3/2
=1
4a
4dd
4cc#X
4ff
4ee
4dd
=2
2gg
4ff
4ee
4aa
4gg
=3
4bb-
4aa
4gg
4ff
4ee
4dd
=4
4a
4dd
4cc#X
4ff
4ee
4dd
=5
2gg
4ff
4ee
4aa
4gg
!!LO:LB:g=original
=6
4bb-
4aa
4a
4cc#X
2dd
=7
4ff
4ccn
4dd
4a
4b-
4g
=8
2cc
4a
4f
4ff
4dd
=9
4bn
4g
4dd
4gg
4ee
4cc
=10
4ff
4aa
4gg
4bb-
4aa
8ggL
8ffJ
!!LO:LB:g=original
=11
2ddd
4bb-
8aaL
8ggJ
4ccc
4ee
=12
4ff
4gg
4cc
4ee
2ff
=13
4a
4dd
4cc#X
4ff
4ee
4dd
=14
2gg
4ff
4ee
4aa
4gg
=15
4bb-
4aa
4gg
4ff
4ee
4dd
!!LO:LB:g=original
=16
4a
4dd
4cc#X
4ff
4ee
4dd
=17
2gg
4ff
4ee
4aa
4gg
=18
4bb-
4aa
4a
4cc#X
2dd
=19
4ff
4ee
4dd
4ccn
4bn
4a
=20
2ee
4e
4dd
4cc
4bn
=21
4aa
8ggL
8ffJ
4ee
4cc
4dd
4bn
!!LO:LB:g=original
=22
4cc
4a
4aa
4ee
4ff
4dd
=23
2bbn
4gg#X
8ff#XL
8eeJ
4eee
4bb
=24
4ccc
4aa
4ee
4gg#X
2aa
=25
4a
4dd
4cc#X
4ff
4ee
4dd
=26
2gg
4ff
4ee
4aa
4gg
!!LO:LB:g=original
=27
4bb-
4aa
4gg
4ff
4ee
4dd
=28
4a
4dd
4cc#X
4ff
4ee
4dd
=29
2gg
4ff
4ee
4aa
4gg
=30
4bb-
4aa
4a
4cc#X
2dd
=31
4ddd
4aa
4bb-
4ff#X
4gg
4dd
!!LO:LB:g=original
=32
2ee-X
4cc
8b-L
8aJ
4dd
4f#X
=33
4g
4cc
4a
4dd
4b-
4g
=34
4gg
4bb-
4dd
4ff
4ee
8ddL
8ccJ
=35
2ff
4gg
8ffL
8eeJ
4aa
4a
=36
4dd
8eeL
8ffJ
4ee
4dd
2cc#X
!!LO:LB:g=original
=37
4a
4dd
4cc#X
4ff
4ee
4dd
=38
2gg
4ff
4ee
4aa
4gg
=39
4bb-
4aa
4gg
4ff
4ee
4dd
=40
4a
4dd
4cc#X
4ff
4ee
4dd
=41
2gg
4ff
4ee
4aa
4gg
=42
4bb-
4aa
4a
4cc#X
2dd
==
*-
!!!RTL1: G. PH. Telemann: Twelve Fantasias for Flute without Bass TWV 40:2-13
!!!RPN1: D'Arcangelo, Rita
!!!RMM1: Da Vinci Classics
!!!RC#1: DV-C00440
!!!RRD1: 2022
!!!RLC1: Andreaskirche, Berlin, Germany
!!!RDT1: 16 September 2020, 17 September 2020
!!!RT#1: 6
!!!RTL2: The Telemann Files: 12 Fantasies for Solo Flute
!!!RPN2: Choi, Jasmine
!!!RMM2: Austrian Gramophone
!!!RC#2: AG0001
!!!RRD2: February 2015
!!!RLC2: LeFrak Hall, Queens, USA
!!!RDT2: 9 June 2014, 10 June 2014
!!!RT#2: 6
!!!RTL3: Georg Philipp Telemann: Twelve Fantasies for Flute
!!!RPN3: Robertello, Thomas
!!!RMM3: Delos
!!!RC#3: DE3396
!!!RRD3: 1 June 2009
!!!RLC3: Clear Creek Recording, Keene, California
!!!RDT3: Unknown
!!!RT#3: 6
